X:60
T:The Singing Bowl
R:jig
C:Paul S. Cranford
O:Cape Breton Island
S:http://www.cranfordpub.com
D:currently unrecorded
B:Brenda Stubbert: The Sceocnd Collection
Z:psc
H:                                                        copyrights Cranford Publications, SOCAN
L:1/8
Q:300
M:6/8
K:F
D|CDF AGF|AFF F2 D|CDF AGF|GDD DFD|
CDF AGF|cAc dfd|cAA GFG|AFF F2:|
|:f|agf dfd|cAF F2 f|agf def|gec cfg|
agf dfd|cAc dfd|cAA GFG|AFF F2:|
